X: 1013
T: The Dance in the Play of Macbeth.
%R: jig, waltz
B: Henry Playford "Apollo's Banquet", London 1687 (5th Edition)
F: https://archive.org/details/apollosbanquetco01rugg
Z: 2017 John Chambers <jc:trillian.mit.edu>
M: 6/4
L: 1/4
K: D
% - - - - - - - - - -
a |\
a2b a>gf | e2d e2f |\
g>ab af2 | e2d d2 :: e |\
e2f e>dc | de2 f2e |
f>ga f>ed | ef2 g2a |\
ba2 g2f | ed2 c2d |\
efg fga | e2d d2 |]
% - - - - - - - - - -

%%sep 1 1 500
%%sep 1 1 500

